file/course-hero.svg

<svg clip-rule="evenodd" fill-rule="evenodd" stroke-linejoin="round" stroke-miterlimit="1.41421" viewBox="0 0 560 400" xmlns="http://www.w3.org/2000/svg"><g fill="#001a96" fill-rule="nonzero" transform="translate(44.0155 155)"><path d="m150.921 54.877h3.058l-1.269 11.135c-4.615 2.192-10.038 3.635-17.422 3.635-15.233 0-23.714-10.327-23.714-22.212 0-14.713 10.673-23.943 24.174-23.943 7.846 0 12.867 2.135 15.866 4.097l.347 9.924h-3.001c-2.537-7.384-6.924-10.212-13.789-10.212-11.136 0-15.174 8.251-15.174 17.885 0 10.731 5.019 20.654 16.501 20.654 8.251-.001 11.769-3.692 14.423-10.963z"/><path d="m158.592 54.244c0-10.155 7.558-16.56 16.732-16.56 9.346 0 15.634 6.52 15.634 15.405 0 10.154-7.615 16.558-16.788 16.558-9.348 0-15.578-6.518-15.578-15.403zm24.982.865c0-7.731-3.518-13.731-9.866-13.731-5.366 0-7.788 4.557-7.788 10.846 0 7.73 3.576 13.73 9.865 13.73 5.365 0 7.789-4.499 7.789-10.845z"/><path d="m217.669 63.993c-2.365 2.942-6 5.654-10.787 5.654-5.539 0-9.462-2.769-9.462-9.519v-15.231c0-1.962-.866-2.711-3.521-3.058l-1.036-.173v-2.539l10.038-1.443h1.731l-.29 5.943v15.52c0 3.982 2.193 5.539 5.306 5.539 3.232 0 5.828-1.616 8.021-3.289v-16.5c0-1.962-.866-2.711-3.52-3.058l-.982-.173v-2.539l10.041-1.443h1.673l-.29 5.943v18.52c0 1.962.635 2.538 3.116 2.768l1.501.116v2.596l-10.615 2.019h-1.214z"/><path d="m243.585 46.743c2.826-5.423 5.421-9.059 9.808-9.059 1.384 0 2.247.347 2.824.809v6.172h-2.19c-3.693 0-6.807.751-10.442 4.731v13.674c0 2.827 1.443 3.001 5.538 3.462v2.538h-16.847v-2.538c2.655-.346 4.385-.635 4.385-3.289v-18.865l-4.097-2.251v-1.557l9.231-2.942h2.077z"/><path d="m259.274 66.647-.347-7.674h3c1.098 4.904 3.75 7.442 8.482 7.442 3.806 0 6.232-1.615 6.232-4.788 0-2.655-1.905-3.635-5.077-4.501l-4.155-1.211c-4.962-1.385-8.135-3.635-8.135-9.115 0-5.712 4.328-9.117 11.135-9.117 4.155 0 7.443.924 10.096 2.481v7.039h-2.886c-.922-4.442-3.404-6.288-7.499-6.288-2.942 0-4.961 1.384-4.961 4.153 0 2.308 1.326 3.289 4.095 4.097l4.502 1.269c5.538 1.5 8.71 3.923 8.71 9.634 0 6.058-4.904 9.578-12.116 9.578-4.844.001-8.652-1.268-11.076-2.999z"/><path d="m314.601 50.032v1.731h-22.039c0 7.558 3.519 12.231 10.788 12.231 4.443 0 7.559-2.077 9.461-4.442l1.848.865c-1.384 4.5-5.424 9.231-13.616 9.231-9.231 0-14.942-6.404-14.942-14.999 0-10.155 6.692-16.963 15.574-16.963 8.483-.001 12.926 5.365 12.926 12.346zm-21.864-1.269h14.767c0-4.155-2.424-7.385-7.209-7.385-4.268 0-6.982 3.058-7.558 7.385z"/><path d="m366.509 47.839h-24.114v13.847c0 3.75 1.96 4.385 6.288 4.558v2.826h-20.136v-2.826c4.328-.173 6.29-.808 6.29-4.558v-30.231c0-3.75-1.961-4.385-6.29-4.559v-2.826h20.136v2.826c-4.328.174-6.288.808-6.288 4.559v12.923h24.114v-12.923c0-3.75-1.962-4.385-6.288-4.559v-2.826h20.137v2.826c-4.327.174-6.288.808-6.288 4.559v30.231c0 3.75 1.962 4.385 6.288 4.558v2.826h-20.138v-2.826c4.327-.173 6.288-.808 6.288-4.558v-13.847z"/><path d="m410.966 50.032v1.731h-22.039c0 7.558 3.519 12.231 10.788 12.231 4.442 0 7.559-2.077 9.462-4.442l1.846.865c-1.386 4.5-5.424 9.231-13.616 9.231-9.229 0-14.942-6.404-14.942-14.999 0-10.155 6.69-16.963 15.576-16.963 8.483-.001 12.925 5.365 12.925 12.346zm-21.864-1.269h14.768c0-4.155-2.424-7.385-7.212-7.385-4.27 0-6.979 3.058-7.556 7.385z"/><path d="m425.516 46.743c2.826-5.423 5.423-9.059 9.806-9.059 1.384 0 2.25.347 2.826.809v6.172h-2.19c-3.693 0-6.807.751-10.442 4.731v13.674c0 2.827 1.441 3.001 5.539 3.462v2.538h-16.848v-2.538c2.654-.346 4.385-.635 4.385-3.289v-18.865l-4.098-2.251v-1.557l9.232-2.942h2.078z"/><path d="m439.6 54.244c0-10.155 7.559-16.56 16.732-16.56 9.349 0 15.637 6.52 15.637 15.405 0 10.154-7.616 16.558-16.79 16.558-9.347 0-15.579-6.518-15.579-15.403zm24.983.865c0-7.731-3.52-13.731-9.866-13.731-5.364 0-7.789 4.557-7.789 10.846 0 7.73 3.578 13.73 9.868 13.73 5.364 0 7.787-4.499 7.787-10.845z"/><path d="m44.537 12.689-44.537-12.689v74.41l44.537 15.59 44.536-15.59v-74.41zm15.949 56.381-15.949-10.013-15.948 10.013 4.595-18.263-14.451-12.073 18.786-1.274 7.019-17.475 7.017 17.475 18.788 1.274-14.454 12.073z"/></g></svg>

<?xml version="1.0" encoding="UTF-8" standalone="no"?>
<!DOCTYPE svg PUBLIC "-//W3C//DTD SVG 1.1//EN" "http://www.w3.org/Graphics/SVG/1.1/DTD/svg11.dtd">
<svg width="100%" height="100%" viewBox="0 0 560 400" version="1.1" xmlns="http://www.w3.org/2000/svg" xmlns:xlink="http://www.w3.org/1999/xlink" xml:space="preserve" xmlns:serif="http://www.serif.com/" style="fill-rule:evenodd;clip-rule:evenodd;stroke-linejoin:round;stroke-miterlimit:1.41421;">
    <g transform="matrix(1,0,0,1,44.0155,155)">
        <g>
            <path id="XMLID_154_" d="M150.921,54.877L153.979,54.877L152.71,66.012C148.095,68.204 142.672,69.647 135.288,69.647C120.055,69.647 111.574,59.32 111.574,47.435C111.574,32.722 122.247,23.492 135.748,23.492C143.594,23.492 148.615,25.627 151.614,27.589L151.961,37.513L148.96,37.513C146.423,30.129 142.036,27.301 135.171,27.301C124.035,27.301 119.997,35.552 119.997,45.186C119.997,55.917 125.016,65.84 136.498,65.84C144.749,65.839 148.267,62.148 150.921,54.877Z" style="fill:rgb(0,26,150);fill-rule:nonzero;"/>
            <path id="XMLID_151_" d="M158.592,54.244C158.592,44.089 166.15,37.684 175.324,37.684C184.67,37.684 190.958,44.204 190.958,53.089C190.958,63.243 183.343,69.647 174.17,69.647C164.822,69.647 158.592,63.129 158.592,54.244ZM183.574,55.109C183.574,47.378 180.056,41.378 173.708,41.378C168.342,41.378 165.92,45.935 165.92,52.224C165.92,59.954 169.496,65.954 175.785,65.954C181.15,65.954 183.574,61.455 183.574,55.109Z" style="fill:rgb(0,26,150);fill-rule:nonzero;"/>
            <path id="XMLID_149_" d="M217.669,63.993C215.304,66.935 211.669,69.647 206.882,69.647C201.343,69.647 197.42,66.878 197.42,60.128L197.42,44.897C197.42,42.935 196.554,42.186 193.899,41.839L192.863,41.666L192.863,39.127L202.901,37.684L204.632,37.684L204.342,43.627L204.342,59.147C204.342,63.129 206.535,64.686 209.648,64.686C212.88,64.686 215.476,63.07 217.669,61.397L217.669,44.897C217.669,42.935 216.803,42.186 214.149,41.839L213.167,41.666L213.167,39.127L223.208,37.684L224.881,37.684L224.591,43.627L224.591,62.147C224.591,64.109 225.226,64.685 227.707,64.915L229.208,65.031L229.208,67.627L218.593,69.646L217.379,69.646L217.669,63.993Z" style="fill:rgb(0,26,150);fill-rule:nonzero;"/>
            <path id="XMLID_147_" d="M243.585,46.743C246.411,41.32 249.006,37.684 253.393,37.684C254.777,37.684 255.64,38.031 256.217,38.493L256.217,44.665L254.027,44.665C250.334,44.665 247.22,45.416 243.585,49.396L243.585,63.07C243.585,65.897 245.028,66.071 249.123,66.532L249.123,69.07L232.276,69.07L232.276,66.532C234.931,66.186 236.661,65.897 236.661,63.243L236.661,44.378L232.564,42.127L232.564,40.57L241.795,37.628L243.872,37.628L243.585,46.743Z" style="fill:rgb(0,26,150);fill-rule:nonzero;"/>
            <path id="XMLID_145_" d="M259.274,66.647L258.927,58.973L261.927,58.973C263.025,63.877 265.677,66.415 270.409,66.415C274.215,66.415 276.641,64.8 276.641,61.627C276.641,58.972 274.736,57.992 271.564,57.126L267.409,55.915C262.447,54.53 259.274,52.28 259.274,46.8C259.274,41.088 263.602,37.683 270.409,37.683C274.564,37.683 277.852,38.607 280.505,40.164L280.505,47.203L277.619,47.203C276.697,42.761 274.215,40.915 270.12,40.915C267.178,40.915 265.159,42.299 265.159,45.068C265.159,47.376 266.485,48.357 269.254,49.165L273.756,50.434C279.294,51.934 282.466,54.357 282.466,60.068C282.466,66.126 277.562,69.646 270.35,69.646C265.506,69.647 261.698,68.378 259.274,66.647Z" style="fill:rgb(0,26,150);fill-rule:nonzero;"/>
            <path id="XMLID_142_" d="M314.601,50.032L314.601,51.763L292.562,51.763C292.562,59.321 296.081,63.994 303.35,63.994C307.793,63.994 310.909,61.917 312.811,59.552L314.659,60.417C313.275,64.917 309.235,69.648 301.043,69.648C291.812,69.648 286.101,63.244 286.101,54.649C286.101,44.494 292.793,37.686 301.675,37.686C310.158,37.685 314.601,43.051 314.601,50.032ZM292.737,48.763L307.504,48.763C307.504,44.608 305.08,41.378 300.295,41.378C296.027,41.378 293.313,44.436 292.737,48.763Z" style="fill:rgb(0,26,150);fill-rule:nonzero;"/>
            <path id="XMLID_116_" d="M366.509,47.839L342.395,47.839L342.395,61.686C342.395,65.436 344.355,66.071 348.683,66.244L348.683,69.07L328.547,69.07L328.547,66.244C332.875,66.071 334.837,65.436 334.837,61.686L334.837,31.455C334.837,27.705 332.876,27.07 328.547,26.896L328.547,24.07L348.683,24.07L348.683,26.896C344.355,27.07 342.395,27.704 342.395,31.455L342.395,44.378L366.509,44.378L366.509,31.455C366.509,27.705 364.547,27.07 360.221,26.896L360.221,24.07L380.358,24.07L380.358,26.896C376.031,27.07 374.07,27.704 374.07,31.455L374.07,61.686C374.07,65.436 376.032,66.071 380.358,66.244L380.358,69.07L360.22,69.07L360.22,66.244C364.547,66.071 366.508,65.436 366.508,61.686L366.508,47.839L366.509,47.839Z" style="fill:rgb(0,26,150);fill-rule:nonzero;"/>
            <path id="XMLID_113_" d="M410.966,50.032L410.966,51.763L388.927,51.763C388.927,59.321 392.446,63.994 399.715,63.994C404.157,63.994 407.274,61.917 409.177,59.552L411.023,60.417C409.637,64.917 405.599,69.648 397.407,69.648C388.178,69.648 382.465,63.244 382.465,54.649C382.465,44.494 389.155,37.686 398.041,37.686C406.524,37.685 410.966,43.051 410.966,50.032ZM389.102,48.763L403.87,48.763C403.87,44.608 401.446,41.378 396.658,41.378C392.388,41.378 389.679,44.436 389.102,48.763Z" style="fill:rgb(0,26,150);fill-rule:nonzero;"/>
            <path id="XMLID_111_" d="M425.516,46.743C428.342,41.32 430.939,37.684 435.322,37.684C436.706,37.684 437.572,38.031 438.148,38.493L438.148,44.665L435.958,44.665C432.265,44.665 429.151,45.416 425.516,49.396L425.516,63.07C425.516,65.897 426.957,66.071 431.055,66.532L431.055,69.07L414.207,69.07L414.207,66.532C416.861,66.186 418.592,65.897 418.592,63.243L418.592,44.378L414.494,42.127L414.494,40.57L423.726,37.628L425.804,37.628L425.516,46.743Z" style="fill:rgb(0,26,150);fill-rule:nonzero;"/>
            <path id="XMLID_108_" d="M439.6,54.244C439.6,44.089 447.159,37.684 456.332,37.684C465.681,37.684 471.969,44.204 471.969,53.089C471.969,63.243 464.353,69.647 455.179,69.647C445.832,69.647 439.6,63.129 439.6,54.244ZM464.583,55.109C464.583,47.378 461.063,41.378 454.717,41.378C449.353,41.378 446.928,45.935 446.928,52.224C446.928,59.954 450.506,65.954 456.796,65.954C462.16,65.954 464.583,61.455 464.583,55.109Z" style="fill:rgb(0,26,150);fill-rule:nonzero;"/>
        </g>
        <path d="M44.537,12.689L0,0L0,74.41L44.537,90L89.073,74.41L89.073,0L44.537,12.689ZM60.486,69.07L44.537,59.057L28.589,69.07L33.184,50.807L18.733,38.734L37.519,37.46L44.538,19.985L51.555,37.46L70.343,38.734L55.889,50.807L60.486,69.07Z" style="fill:rgb(0,26,150);fill-rule:nonzero;"/>
    </g>
</svg>
